X:4121
T:McDonalds Quick Step.
O:england
N:Flora MacDonald's Reel in later sources
M:2/4
L:1/8
K:D
F|E/E/E EF|BEEF|E/E/E EF|dFDF|E/E/E EF|EFGA|B/c/d AG|FDD:|
F|Eeed    |eEEF|Eeec    |dDDF|Aeed    |BcdB|e/f/g fe|dDD:|


